Papirus-nordic/24x24/places/folder-red-templates-open.svg

<svg xmlns="http://www.w3.org/2000/svg" width="24" height="24" version="1">
 <rect width="20" height="12" x="2" y="9.5" rx="1" ry="1" opacity=".2"/>
 <path d="M2 17c0 .554.446 1 1 1h18c.554 0 1-.446 1-1V6c0-.554-.446-1-1-1H11V4c0-.554-.446-1-1-1H3c-.554 0-1 .446-1 1" fill="#ae4f58"/>
 <rect width="20" height="10" x="2" y="10.5" rx="1" ry="1" opacity=".2"/>
 <rect width="16" height="8" x="4" y="7" rx="1" ry="1" fill="#e4e4e4"/>
 <rect width="20" height="10" x="2" y="11" rx="1" ry="1" fill="#bf616a"/>
 <path d="M3 3c-.554 0-1 .446-1 1v.5c0-.554.446-1 1-1h7c.554 0 1 .446 1 1V4c0-.554-.446-1-1-1zm8 2v.5h10c.554 0 1 .446 1 1V6c0-.554-.446-1-1-1z" opacity=".1" fill="#fff"/>
 <path d="M9.5 12c-.277 0-.5.223-.5.5v5h.5V17h.5v-4h2.5v2H14v4.5h.5V19h.5v-5l-2-2zm5 7.5v.5h.5v-.5zm-.5 0h-.5v.5h.5zm-.5 0V19H13v.5zm-.5 0h-.5v.5h.5zm-.5 0V19H12v.5zm-.5 0h-.5v.5h.5zm-.5 0V19H11v.5zm-.5 0h-.5v.5h.5zm-.5 0V19H10v.5zm-.5 0h-.5v.5h.5zm-.5 0V19H9v.5zm0-.5h.5v-.5h-.5zm0-.5V18H9v.5zm0-.5h.5v-.5h-.5z" fill="#974a4d"/>
</svg>

<svg xmlns="http://www.w3.org/2000/svg" width="24" height="24" version="1">
 <rect style="opacity:0.2" width="20" height="12" x="2" y="9.5" rx="1" ry="1"/>
 <path style="fill:#ae4f58" d="M 2,17 C 2,17.554 2.446,18 3,18 H 21 C 21.554,18 22,17.554 22,17 V 6 C 22,5.446 21.554,5 21,5 H 12 C 10.5,5 10,3 8.5,3 H 3 C 2.446,3 2,3.446 2,4"/>
 <rect style="opacity:0.2" width="20" height="10" x="2" y="10.5" rx="1" ry="1"/>
 <rect style="fill:#e4e4e4" width="16" height="8" x="4" y="7" rx="1" ry="1"/>
 <rect style="fill:#bf616a" width="20" height="10" x="2" y="11" rx="1" ry="1"/>
 <path style="opacity:0.1;fill:#ffffff" d="M 3,3 C 2.446,3 2,3.446 2,4 V 4.5 C 2,3.946 2.446,3.5 3,3.5 H 8.5 C 10,3.5 10.5,5.5 12,5.5 H 21 C 21.554,5.5 22,5.946 22,6.5 V 6 C 22,5.446 21.554,5 21,5 H 12 C 10.5,5 10,3 8.5,3 Z"/>
 <path style="fill:#974a4d" d="M 9.5,12 C 9.223,12 9,12.223 9,12.5 V 17.5 H 9.5 V 17 H 10 V 13 H 12.5 V 15 H 14 V 19 19.5 H 14.5 V 19 H 15 V 14 L 13,12 Z M 14.5,19.5 V 20 H 15 V 19.5 Z M 14,19.5 H 13.5 V 20 H 14 Z M 13.5,19.5 V 19 H 13 V 19.5 Z M 13,19.5 H 12.5 V 20 H 13 Z M 12.5,19.5 V 19 H 12 V 19.5 Z M 12,19.5 H 11.5 V 20 H 12 Z M 11.5,19.5 V 19 H 11 V 19.5 Z M 11,19.5 H 10.5 V 20 H 11 Z M 10.5,19.5 V 19 H 10 V 19.5 Z M 10,19.5 H 9.5 V 20 H 10 Z M 9.5,19.5 V 19 H 9 V 19.5 Z M 9.5,19 H 10 V 18.5 H 9.5 Z M 9.5,18.5 V 18 H 9 V 18.5 Z M 9.5,18 H 10 V 17.5 H 9.5 Z"/>
</svg>
